!!!COA: Josquin des Prez
!!!CDT: ~1450-1521/08/27
!!!COA2: Gombert
!!!COA3: Claudin
!!!OTL@@FRE: Je ne me puis tenir d'aimer
!!!AGN: Chanson
!!!SCT: NJE 29.11
!!!SCA: New Josquin Edition 29.11
!!!voices: 5
**kern	**kern	**kern	**kern	**kern
*staff5	*staff4	*staff3	*staff2	*staff1
*clefF4	*clefF4	*clefGv2	*clefGv2	*clefG2
*Ivox	*Ivox	*Ivox	*Ivox	*Ivox
*I"Bassus	*I"Quintus	*I"Tenor	*I"Contra	*I"Superius
*I'B	*I'Q	*I'T	*I'C	*I'S
*k[]	*k[]	*k[]	*k[]	*k[]
*M2/1	*M2/1	*M2/1	*M2/1	*M2/1
*met(C|)	*met(C|)	*met(C|)	*met(C|)	*met(C|)
=1-	=1-	=1-	=1-	=1-
0r	0r	0r	0d	0r
=2	=2	=2	=2	=2
0r	0D	0r	1f	0a
.	.	.	1f	.
=3	=3	=3	=3	=3
0r	1A	0r	1e	1cc
.	1A	.	1c	1cc
=4	=4	=4	=4	=4
0r	1G	0r	1d	1b
.	1E	.	1e	1g
=5	=5	=5	=5	=5
0r	1F	0r	2A/	1a
.	.	.	2d\	.
.	1G	.	2d\	1b
.	.	.	2d\	.
=6	=6	=6	=6	=6
0r	2A\	0r	2c\	2e/
.	2F\	.	2A/	2a/
.	2F\	.	4c\	2a/
.	.	.	4B\	.
.	2F\	.	4c\	2a/
.	.	.	4d\	.
=7	=7	=7	=7	=7
0r	2c\	0r	2e\	2g/
.	2d\	.	1d	2f/
.	1A	.	.	1e
.	.	.	2c#i\	.
=8	=8	=8	=8	=8
0D	1D	0r	1d	1d
.	1d	.	1f	2r
.	.	.	.	2a/
=9	=9	=9	=9	=9
1F	1c	0r	1f	1a
1F	1A	.	1f	1a
=10	=10	=10	=10	=10
1E	1.e	0r	1.g	1b
1C	.	.	.	1cc
.	2e\	.	2g\	.
=11	=11	=11	=11	=11
1D	1d	0r	1f	2b\
.	.	.	.	1a
1E	1B	.	1e	.
.	.	.	.	2g#i/
=12	=12	=12	=12	=12
0AA	1A	0A	0c	[0a
.	1r	.	.	.
=13	=13	=13	=13	=13
0r	1A	1c	1e	0a]
.	2A\	1c	2e\	.
.	2A\	.	2c\	.
=14	=14	=14	=14	=14
2r	2.G\	1B	2d\	0r
2E\	.	.	4c\	.
.	4F\	.	4B\	.
2E\	2E\	1G	2c\	.
2E\	2C/	.	[2B\	.
=15	=15	=15	=15	=15
2D\	2F\	1A	2B\]	1dd
2C/	2E\	.	1A	.
1BB	1D	1B	.	2dd\
.	.	.	2G#i/	2dd\
=16	=16	=16	=16	=16
0AA	0r	0E	2.A/	2.cc\
.	.	.	4B\	4b\
.	.	.	4c\	2a/
.	.	.	4d\	.
.	.	.	[2e\	2g/
=17	=17	=17	=17	=17
1AA	0r	1A	4e\]	2f/
.	.	.	4d\	.
.	.	.	1d	4e/
.	.	.	.	4d/
2AA/	.	2A/	.	2e/
2AA/	.	2A/	2c#i\	2a/
=18	=18	=18	=18	=18
1.D	1A	2.F/	1d	2.a/
.	.	4E/	.	4g/
.	2A\	2D/	1r	2f/
2C/	2A\	2E/	.	[2e/
=19	=19	=19	=19	=19
2BB-/	2B-i\	2F/	1r	2e/]
2GG/	2B-i\	2G/	.	1d
1AA	1A	1E	1e	.
.	.	.	.	2c#i/
=20	=20	=20	=20	=20
0D	1A	0D	1f	1d
.	2r	.	1f	1a
.	2D\	.	.	.
=21	=21	=21	=21	=21
0r	1A	0r	1e	1cc
.	1A	.	1c	1cc
=22	=22	=22	=22	=22
0r	1.G	0r	2d\	1.b
.	.	.	4G/	.
.	.	.	4A/	.
.	.	.	4B\	.
.	.	.	4c\	.
.	2F\	.	[2d\	2a/
=23	=23	=23	=23	=23
0r	1E	0r	2d\]	1g
.	.	.	1c	.
.	1D	.	.	1f
.	.	.	2B\	.
=24	=24	=24	=24	=24
0AA	0C	0r	0c	0e
=25	=25	=25	=25	=25
1F	2r	0r	1A	2r
.	2c\	.	.	2a/
1F	2c\	.	2A/	2a/
.	2d\	.	2A/	2a/
=26	=26	=26	=26	=26
1.E	1e	0r	2.B\	1.g
.	.	.	4A/	.
.	2E\	.	2G/	.
2D\	2F\	.	2A/	2f/
=27	=27	=27	=27	=27
2C/	2G\	0r	2E/	1e
2AA/	2C/	.	1A	.
1BB	1D	.	.	1d
.	.	.	2G#i/	.
=28	=28	=28	=28	=28
0AA	0E	0A	1A	0c
.	.	.	1r	.
=29	=29	=29	=29	=29
2r	1A	1c	1r	0r
2AA/	.	.	.	.
2AA/	2A\	1c	1e	.
2AA/	2A\	.	.	.
=30	=30	=30	=30	=30
2.E\	1G	1.B	2e\	0r
.	.	.	2e\	.
4F\	.	.	.	.
2G\	2r	.	2d\	.
2D\	2d\	2A/	2f\	.
=31	=31	=31	=31	=31
2E\	2B\	1G	1e	1r
2C/	2c\	.	.	.
1D	1A	1F	1d	2r
.	.	.	.	2a/
=32	=32	=32	=32	=32
0AA	2r	1E	0c	2a/
.	2A\	.	.	2a/
.	2A\	1r	.	2cc\
.	2A\	.	.	4b\
.	.	.	.	4a/
=33	=33	=33	=33	=33
0r	2.c\	1e	1r	2g/
.	.	.	.	2cc\
.	8B\L	.	.	.
.	8A\J	.	.	.
.	2G\	2e\	2r	2b\
.	2E\	2e\	2e\	2g/
=34	=34	=34	=34	=34
0r	1.A	2.c\	2e\	2.a/
.	.	.	2e\	.
.	.	4B\	.	4b\
.	.	2A/	2c\	2cc\
.	2G\	2B\	2d\	[2b\
=35	=35	=35	=35	=35
0r	2F\	2c\	1f	2b\]
.	2D\	2d\	.	1a
.	[1E	1B	1e	.
.	.	.	.	2g#i/
=36	=36	=36	=36	=36
1AA	1E]	2A/	1c	0a
.	.	2A/	.	.
2AA/	2r	2A/	2c\	.
2AA/	2A\	2A/	2c\	.
=37	=37	=37	=37	=37
1.D	2A\	2.F/	2.d\	0r
.	2A\	.	.	.
.	.	4E/	4e\	.
.	2F\	2D/	2f\	.
2C/	2G\	2E/	[2e\	.
=38	=38	=38	=38	=38
2BB-i/	1B-i	2F/	2e\]	1r
2GG/	.	2G/	1d	.
1AA	1A	1E	.	1e
.	.	.	2c#i\	.
=39	=39	=39	=39	=39
2r	2r	0D	0d	1.f
2D\	2A\	.	.	.
2D\	2A\	.	.	.
2D\	2F\	.	.	2f/
=40	=40	=40	=40	=40
2C/	2G\	1r	0r	2e/
2AA/	2A\	.	.	2c/
1BB	1D	1G	.	1d
=41	=41	=41	=41	=41
0AA	0E	1.A	1e	2c/
.	.	.	.	2cc\
.	.	.	2e\	2cc\
.	.	2A/	2c\	2cc\
=42	=42	=42	=42	=42
0r	0r	2G/	2d\	2b\
.	.	2E/	2e\	2g/
.	.	1F	1A	1a
=43	=43	=43	=43	=43
2r	2r	0E	2B\	0g
2C/	2c\	.	2e\	.
2C/	2c\	.	2e\	.
2C/	2c\	.	2e\	.
=44	=44	=44	=44	=44
2D\	2B\	0r	2d\	0r
2E\	2G\	.	2B\	.
1AA	1A	.	1c	.
=45	=45	=45	=45	=45
0E	0G	1r	0B	1r
.	.	1G	.	1b
=46	=46	=46	=46	=46
0r	2r	1.A	2r	1.cc
.	2c\	.	2e\	.
.	2c\	.	2e\	.
.	2A\	2A/	2c\	2cc\
=47	=47	=47	=47	=47
1r	2B\	2G/	2d\	2b\
.	2B\	2E/	2e\	2g/
1D	1d	1F	1A	1a
=48	=48	=48	=48	=48
1.G	0e	0E	2B\	0g
.	.	.	2e\	.
.	.	.	[1g	.
2F\	.	.	.	.
=49	=49	=49	=49	=49
2E\	0r	0r	2g\]	0r
2D\	.	.	2f\	.
2C/	.	.	2e\	.
2BB/	.	.	2d\	.
=50	=50	=50	=50	=50
2AA/	1r	1A	2c\	0r
1A	.	.	4B\	.
.	.	.	4A/	.
.	1E	[1e	1B	.
2G#i\	.	.	.	.
=51	=51	=51	=51	=51
0A	1.A	2e\]	0A	1e
.	.	2d\	.	.
.	.	2c\	.	[1a
.	2G\	2B\	.	.
=52	=52	=52	=52	=52
0r	2F\	1.A	0r	2a/]
.	2E\	.	.	2g/
.	1D	.	.	2f/
.	.	2c\	.	2e/
=53	=53	=53	=53	=53
1r	2G\	2B\	2r	2d/
.	2A\	1A	2A/	2c/
1E	1E	.	[1e	1B
.	.	2G#i/	.	.
=54	=54	=54	=54	=54
1.A	0r	2A/	2e\]	1A
.	.	2D/	2d\	.
.	.	[1A	2c\	1r
2G\	.	.	2B\	.
=55	=55	=55	=55	=55
2F\	0r	2A/]	2A/	1r
2E\	.	2G/	1B	.
2D\	.	2F/	.	1a
2C/	.	2E/	[2A/	.
=56	=56	=56	=56	=56
1BB	1r	1D	2A/]	1.dd
.	.	.	2G#i/	.
1AA	2r	1E	1A	.
.	2A\	.	.	2cc\
=57	=57	=57	=57	=57
0r	2G\	2r	1e	2b\
.	2A\	2c\	.	2a/
.	2E\	2B\	2e\	2g/
.	2F\	2A/	2c\	[2f/
=58	=58	=58	=58	=58
1r	1D	1d	1f	4f/]
.	.	.	.	4e/
.	.	.	.	1a
1E	1E	1B	1e	.
.	.	.	.	2g#i/
=59	=59	=59	=59	=59
1.F	2r	0A	2c\	2a/
.	2A\	.	2c\	2f/
.	2A\	.	2c\	2a/
2F\	2F\	.	2A/	2a/
=60	=60	=60	=60	=60
2E\	2G\	0r	2B\	2g/
2C/	2A\	.	2c\	2e/
1D	2.F\	.	2.A/	1f
.	4G\	.	4B\	.
=61	=61	=61	=61	=61
0AA	2A\	1A	2c\	2e/
.	2c\	.	2e\	2a/
.	2c\	2A/	2e\	2cc\
.	2A\	2A/	2c\	2cc\
=62	=62	=62	=62	=62
0r	2B\	2G/	2d\	2b\
.	2B\	2E/	2e\	2g/
.	2.A\	1F	2.c\	1a
.	4B\	.	4d\	.
=63	=63	=63	=63	=63
1E	2c\	1E	2e\	2g/
.	2G\	.	2c\	2e/
2E\	2G\	1r	2B\	2g/
2E\	2E\	.	2G/	2g/
=64	=64	=64	=64	=64
2D\	2F\	0r	2A/	2f/
2BB/	2G\	.	2B\	2d/
1C	2E\	.	2.G/	1e
.	[2G\	.	.	.
.	.	.	4A/	.
=65	=65	=65	=65	=65
0GG	2G\]	1r	0B	1d
.	4F\	.	.	.
.	4E\	.	.	.
.	1D	1G	.	1d
=66	=66	=66	=66	=66
1GG	1d	1.B	0r	1.g
2GG/	2d\	.	.	.
2AA/	2c\	2A/	.	2f/
=67	=67	=67	=67	=67
2C/	2c\	2G/	1r	2e/
2D\	2A\	2F/	.	1d
1AA	1A	1E	1e	.
.	.	.	.	2c#i/
=68	=68	=68	=68	=68
0r	2r	2D/	1.f	1d
.	2D\	2A/	.	.
.	2D\	2d\	.	2r
.	2E\	2c\	2e\	2g/
=69	=69	=69	=69	=69
1r	2G\	2B\	2d\	2g/
.	2A\	1A	2c\	2f/
1E	1E	.	1B	2e/
.	.	2G/	.	2e/
=70	=70	=70	=70	=70
1.F	2r	2.A/	1A	1d
.	2A\	.	.	.
.	.	4B\	.	.
.	2A\	4c\	1r	2r
.	.	4A/	.	.
2E\	2G\	[2B\	.	2g/
=71	=71	=71	=71	=71
2D\	2F\	4B\]	1d	1a
.	.	4A/	.	.
2C/	2E\	1A	.	.
1BB	1D	.	1d	1b
.	.	2G#i/	.	.
=72	=72	=72	=72	=72
2AA/	1E	2A/	1c	1.cc
2AA/	.	2A/	.	.
2AA/	1E	2c\	[1e	.
2AA/	.	2c\	.	4b\
.	.	.	.	4a/
=73	=73	=73	=73	=73
2E\	2G\	2B\	2e\]	2g/
2F\	2F\	2A/	2d\	1a
1E	2G\	1B	1e	.
.	2G\	.	.	2g#i/
=74	=74	=74	=74	=74
1AA	1E	[0Al	1c	[0al
2r	2r	.	2r	.
2AA/	2E\	.	2c\	.
=75	=75	=75	=75	=75
2D\	2F\	0A_	2d\	0a_
2C/	2E\	.	2e\	.
2D\	2F\	.	2d\	.
2D\	2F\	.	2d\	.
=76	=76	=76	=76	=76
1AA	1E	0A_	1c	0a_
2r	2r	.	2r	.
2AA/	2E\	.	2c\	.
=77	=77	=77	=77	=77
2D\	2F\	0A_	2d\	0a_
2AA/	2E\	.	2c\	.
2D\	2F\	.	2d\	.
2D\	2F\	.	2d\	.
=78	=78	=78	=78	=78
0AAl	0El	0A]	0cl	0a]
==	==	==	==	==
*-	*-	*-	*-	*-
!!!RDF**kern: l=long note in original notation
!!!RDF**kern: i=editorial accidental
!!!ENC: Will Watson 13/12/2011
!!!END: 2011/12/13/
!!!EED: Jesse Rodin
!!!EEV: 2012/01/24/
!!attribution-level@Jos: 3 (tricky)
!!!ONB: Translated from MusicXML and edited on 2012/01/24/ by Craig Sapp
!!muse2ps:  C^@{COA}?\n@{SCT}^v90,90,90,90,90,130Q16
